X:1
T:Als, Christ der Herr, in Garten ging
B:"Volkslied u. Volksmusik in O.Oe., Heft 21, 29 Fasten-, Passions- u. Osterlieder", Zusammenstellung: A. Bloechl, Herausgeber:  Oberoesterreichisches Volksliedwerk, Linz 1996
F:dort in A-moll
Z:abc transcription Simon Wascher
F:http://simonwascher.info/
M:3/4
L:1/8
K:Gm
G2G2G2 | d3 ed2 | d2c2B2 | A6 |
c2c2c2 | c3 BA2 | B2c2d2 | G4d2 |
c2A2BA | G4F2 | B4c2 | d6 |
d2d2d2 | c4d2 | B2A3A | G6 |]
